X:710
T:Mrs. MacDonald of Clanranald
R:Strathspey
C:Nathaniel Gow
B:The Athole Collection
M:C
L:1/8
K:B_
F/E/|D>FD>F ~B2 F>E|D>FB>F G/F/E/D/ C>E|D>FD>F ~B2 B>g|
f>d e/d/c/B/ F<B~B:||:f/e/|d<Bd<f ~g3b|f>d e/d/c/B/ A<c cd/e/|1
f>Bd>f g3b|f>dc>B F<B~B:|2 d<f f>b e<g g>b|f>dc>B d<B~B||

